X:1
T:5 Lieder, Op.10
T:Vorwurf
T:2. Vorwurf
T:Fanny (Mendelssohn) Hensel
T:Nikolaus Lenau
T:5 Lieder, Op.10
T:OpenScore (CC0) 
T:OpenScore (CC0) 
T:OpenScore (CC0) 
C:Fanny (Mendelssohn) Hensel
Z:Nikolaus Lenau
Z:OpenScore (CC0)
Z:
%%score 1 { ( 2 4 6 ) | ( 3 5 ) }
L:1/8
Q:1/4=100
M:4/4
K:B
V:1 treble nm="Voice"
V:2 treble nm="Piano"
V:4 treble 
V:6 treble 
V:3 bass 
V:5 bass 
V:1
 z8 | z4 z2!p! G2 | e4 z2 d2 | c2 B2 =A2 G2 | (F2 e4) (dc) | ^B2 z2 z2 G2 | %6
w: |Du|klagst, dass|ban- ge Weh- muth|dich * be- *|schleicht, weil|
"^cresc." =A2 ^A2 c3 =A | G2 z2 z2 B2 | ^B2 c2 e3 c | ^B2 z!f! G (=B=A) z A | (=AG) z G (GF) z F | %11
w: sich der Wald ent-|laubt, und|ü- ber dei- nem|Haupt da- hin, * da-|hin * der Wan- * der-|
 (FE) (DC) e3 c | ^B2 z2 z2!p! G2 | =A4 z2 ^A2 | B6 ^B2 |"^cresc." c3 c (dc) (=B=A) | %16
w: zug * der * Vö- gel|streicht; du|klagst, du|klagst, weil|sich der Wald * ent- *|
!mf! (G2 ^^F4) F2 | d3 d (ed) (cB) | (^A2 =A4) (AG) | G2 z2 z2 (=dc) | c4 z2 c2 | (g4 fe) (dc) | %22
w: laubt, * und|ü- ber dei- * nem *|Haupt * da- *|hin, da- *|hin der|Wan- * * der- *|
 (^Bd) (c=A) G3 B | c2 z2 z4 | z4!f! d2 F3/2 G/ | (F2 ^E2) z4 | z4 ^e2 G3/2 A/ | (G2 F2) z2 A2 | %28
w: zug * der * Vö- gel|streicht.|O kla- ge|nicht, *|o kla- ge|nicht, * bist|
 A3 A d2 (BG) | (F2 ^E2)!mf! c2 F =E | E3 D D2 z2 | z4"^cresc." d2 B3/2 A/ | A3 G G4 | %33
w: sel- ber wan- del- *|haft, * denkst du der|Lie- bes- gluth?|denkst du der|Lie- bes- gluth?|
 z2!f! g4 ^^c c | ^^c6 d2 | !fermata!d4 z2!pp! e2 | d2 A2 B2 G2 | ^^F2 D2 E2 ^^C2 | %38
w: denkst du der|Lie- bes-|gluth? Wie|nun so trau- rig|ruht in dei- ner|
 D2!<(! D2!<)!!p! B2 (AG) | (G4 ^^F3) G | G2 z2 z2!pp! G2 | G2!<(! G2!<)!!p! d2 c2 | %42
w: Brust die mü- de *|Lei- * den-|schaft! wie|nun so trau- rig|
 ^B2 =A2 G2 ^^F2 | ^F6 ^^F2 | G6 ^^G2 | (A2 B4) (AG) | (G4 ^^F3) G | G4 z4 | z8 |] %49
w: ruht in dei- ner|Brust die|mü- de,|mü- * de *|Lei- * den-|schaft!||
V:2
!p! G,2 D2 B2 A2 | G2 F2 E2 D2 | C2 G2 e2 [=A^Bd]2 | [Gc]2 [=FGB]2 [E=A]2 [=D^EG]2 | %4
 [CF]4 [C^^F]4 | [DG]2 [G,^B,]2 [B,D]2 [DG]2 |"_cresc." =A2 ^A2 [=Ac]2 [FA]2 | %7
 [EG]2 [B,E]2 [EG]2 [EB]2 | [D=A^B]2 [CGc]2 [ce]2 [^Ac]2 | [G^B]2!f! g4 f2- | f2 e4 d2- | %11
 d2 c2 A4 | G!p![^B,D][B,D][B,D] [DF]2 [CE]2 | z [CE][CE][CE] [EG]2 [DF]2 | %14
 z [DF][DF][DF] [F=A]2 [EG][DF] |"_cresc." [CE^^Fc]8 |!mf! z2 [CE^^F]2 [CEF]2 [CEF]2 | [DGd]8 | %18
 z2 [B,D=A]2 [B,DA]2 [B,DA]2 | z [B,E][EG][GB] [EG=d]4 | z [CE][E^^F][Fc] [Fce]4 | [EGc]8- | %22
 [EGc]4 [CEG]2 [DF^B]2 |!f! c2 ^e2- edc^B | ^B2 A2 G2 ^^F2 | F2 ^e2- edc^B | ^B2 =B2 A2 G2 | %27
 G2 F2 x4 | [^EA]2 [=E^^FA]2 [DFA]2 [DGB][B,G] | [G,C][G,C][C^E][EG] [Fc]4 | %30
 z [A,D][D^^F][FA] [Aa]2 d>c | c3 B [DGB]4 |!f! z [G,B,][B,D][DG] Bbag | fed^^c cBAG | %34
 [G^^c]6 [^^Fd]2 | !fermata![^^Fd]4 z2!pp! e2 | d2 A2 B2 G2 | ^^F2 D2 E2 ^^C2 | %38
 D2 [^^F,A,D]2 [G,DG]2 [A,EG]2 | [B,DG]4 [A,C^^F]4 | [G,B,G]2 [G,^B,]2 [A,C]2 [B,D]2 | %41
 [CEG]4 [^B,F=A]2 [CEG]2 | [DF]2 [CE]2 [^B,D]2 [A,C]2 | F6 ^^F2 | G6 ^^G2 | A2 B4 AG | %46
 [B,DG]4 [A,C^^F]4 | [G,^B,G]4 [CE]2 [A,C]2 | [^B,D]8 |] %49
V:3
 G,,2 D,2 B,2 A,2 | G,2 F,2 E,2 D,2 | C,2 G,2 G2 F2 | E2 =D2 C2 B,2 | =A,4 =A,,4 | %5
 [G,,G,]4 z2 [^B,,^B,]2 | C2 =G,2 F,2 B,2 | B,2 G,2 B,2 G,2 | F,2 E,2 [D,D]4 | x4 [CE]2 [DF]2 | %10
 [^B,D]2 [CE]2 [A,C]2 [B,D]2 | [G,C]4 [^^F,,^^F,]4 | [G,,G,]8 | [G,,G,]8 | [G,,G,]8 | [=A,,=A,]8 | %16
 z2 [^A,,^A,]2 [A,,A,]2 [A,,A,]2 | [B,,B,]8 | z2 [B,,F,]2 [B,,F,]2 [B,,F,]2 | [E,,E,]4 [E,B,]4 | %20
 [=A,,=A,]4 [A,E]4 | [G,C]8- | [G,C]4 [G,,G,]2 [G,,G,]2 | CCCC CCCC | CCCC G,G,G,G, | %25
 G,G,[G,C][G,C] [G,C][G,C][G,C][G,C] | [G,C][G,C][G,C][G,C] A,A,A,A, | [D,,D,]6 D2 | %28
 ^^C2 ^C2 B,2 [B,,B,]2 | [B,,G,]4 [A,C]4 | [^^F,,,^^F,,]4 [^^F,D^^F]4 | [G,,,G,,]4 [G,B,]4 | %32
 [E,,E,]4 [E,B,E]4 | ([B,-E]4 B,)G,A,B, | [D,B,]6 [D,A,]2 | !fermata![D,A,]4 z2 E2 | %36
 D2 A,2 B,2 G,2 | ^^F,2 D,2 E,2 ^^C,2 | D,2 [C,,C,]2 [B,,,B,,]2 [C,,C,]2 | [D,,D,]4 [D,,D,]4 | %40
 [G,,,G,,]8 | [G,,G,]8- | [G,,G,]8 | =A,,2 ^A,,2 B,,4- | B,,2 ^B,,2 C,4- | C,4 [^^C,,^^C,]4 | %46
 [D,,D,]4 [D,,D,]4 | [G,,,G,,]4 G,,2 [G,,E,]2 | [G,,D,]8 |] %49
V:4
 x8 | x8 | x8 | x8 | x8 | x8 | E4 D4 | x8 | x4 ^^F4 | x2 G2 =A4 | G4 F4 | [EG]4 [CE]4 | x8 | x8 | %14
 x8 | x8 | x8 | x8 | x8 | x8 | x8 | x8 | x8 | [^EG][EG][EG][EG] [EG][EG][EG][EG] | %24
 [=E^^F][EF][EF][EF] DD[^B,D][B,D] | [^B,D][B,D]^EE EEEE | ^EEEE EE[^^CE][CE] | %27
 z [A,^^C][A,D][DF] [FA]d[FAf]d | x8 | x8 | x8 | z [B,D][DG]G x4 | x4 G4 | x8 | x8 | x8 | x8 | x8 | %38
 x8 | x8 | x8 | x8 | x8 | [=A,C]2 [^A,E]2 [B,D]4- | [B,D]2 [^B,F]2 [C^E]4- | [CE]4 [B,^E]4 | x8 | %47
 x8 | x8 |] %49
V:5
 x8 | x8 | x8 | x8 | x8 | x8 | C,4 B,,4 | E,4 x4 | x8 | [G,,G,]2 [^B,D]2 G,4- | G,8 | x8 | x8 | %13
 x8 | x8 | x8 | x8 | x8 | x8 | x8 | x8 | x8 | x8 | C,2 x2 x4 | C,4 ^B,,2 G,,2 | C,8 | %26
 C,4 ^^C,2 A,,2 | x8 | x8 | x8 | x8 | x8 | x8 | E,4- E,4 | x8 | x8 | x8 | x8 | x8 | x8 | x8 | x8 | %42
 x8 | x8 | x8 | x8 | x8 | x8 | x8 |] %49
V:6
 x8 | x8 | x8 | x8 | x8 | x8 | x8 | x8 | x8 | x8 | x8 | x8 | x8 | x8 | x8 | x8 | x8 | x8 | x8 | %19
 x8 | x8 | x8 | x8 | x8 | x8 | x8 | x8 | x8 | x8 | F2 x2 x4 | x8 | x8 | x8 | x8 | x8 | x8 | x8 | %37
 x8 | x8 | x8 | x8 | x8 | x8 | x8 | x8 | x8 | x8 | x8 | x8 |] %49

